boxicons/svg/regular/bx-location-plus.svg

<svg xmlns="http://www.w3.org/2000/svg" width="24" height="24" viewBox="0 0 24 24"><path d="M11.42 21.815a1.004 1.004 0 0 0 1.16 0C12.884 21.598 20.029 16.44 20 10c0-4.411-3.589-8-8-8S4 5.589 4 9.996c-.029 6.444 7.116 11.602 7.42 11.819zM12 4c3.309 0 6 2.691 6 6.004.021 4.438-4.388 8.423-6 9.731-1.611-1.308-6.021-5.293-6-9.735 0-3.309 2.691-6 6-6z"/><path d="M11 14h2v-3h3V9h-3V6h-2v3H8v2h3z"/></svg>

<svg xmlns="http://www.w3.org/2000/svg" width="24" height="24" viewBox="0 0 24 24"><path d="M11.42,21.815C11.594,21.938,11.797,22,12,22s0.406-0.062,0.58-0.185C12.884,21.598,20.029,16.44,20,10 c0-4.411-3.589-8-8-8S4,5.589,4,9.996C3.971,16.44,11.116,21.598,11.42,21.815z M12,4c3.309,0,6,2.691,6,6.004 c0.021,4.438-4.388,8.423-6,9.731C10.389,18.427,5.979,14.442,6,10C6,6.691,8.691,4,12,4z"/><path d="M11 14L13 14 13 11 16 11 16 9 13 9 13 6 11 6 11 9 8 9 8 11 11 11z"/></svg>
